projects/flag-game/flags/Gambia.svg

<svg viewBox="0 0 1000 667" xmlns="http://www.w3.org/2000/svg" xmlns:xlink="http://www.w3.org/1999/xlink"><clipPath id="a"><path d="m0 444h1000v222.71875h-1000zm0 0"/></clipPath><g fill-rule="evenodd"><path d="m0 0h1000v222.226562h-1000zm0 0" fill="#ce1126"/><path d="m0 222.226562h1000v222.214844h-1000zm0 0" fill="#fff"/><path d="m0 259.261719h1000v148.140625h-1000zm0 0" fill="#0c1c8c"/></g><g clip-path="url(#a)"><path d="m0 444.441406h1000v222.226563h-1000zm0 0" fill="#3a7728" fill-rule="evenodd"/></g></svg>

<?xml version="1.0" encoding="UTF-8"?>
<svg xmlns="http://www.w3.org/2000/svg" xmlns:xlink="http://www.w3.org/1999/xlink" viewBox="0 0 1000 667" version="1.1">
<defs>
<clipPath id="clip1">
  <path d="M 0 444 L 1000 444 L 1000 666.71875 L 0 666.71875 Z M 0 444 "/>
</clipPath>
</defs>
<g id="surface470">
<path style=" stroke:none;fill-rule:evenodd;fill:rgb(80.783081%,6.666565%,14.901733%);fill-opacity:1;" d="M 0 0 L 1000 0 L 1000 222.226562 L 0 222.226562 Z M 0 0 "/>
<path style=" stroke:none;fill-rule:evenodd;fill:rgb(99.998474%,99.998474%,99.998474%);fill-opacity:1;" d="M 0 222.226562 L 1000 222.226562 L 1000 444.441406 L 0 444.441406 Z M 0 222.226562 "/>
<path style=" stroke:none;fill-rule:evenodd;fill:rgb(4.705811%,10.980225%,54.901123%);fill-opacity:1;" d="M 0 259.261719 L 1000 259.261719 L 1000 407.402344 L 0 407.402344 Z M 0 259.261719 "/>
<g clip-path="url(#clip1)" clip-rule="nonzero">
<path style=" stroke:none;fill-rule:evenodd;fill:rgb(22.744751%,46.665955%,15.686035%);fill-opacity:1;" d="M 0 444.441406 L 1000 444.441406 L 1000 666.667969 L 0 666.667969 Z M 0 444.441406 "/>
</g>
</g>
</svg>
